!!!!SEGMENT: pl-kk--kk-i-7--022_anonim--ecce-virgo-concipiet.krn
!!!id: 16xx:812
!!!COM: Anonim
!!!COM-rism: pe30004985
!!!CDT:
!!!CNT:
!!!OTL: Ecce virgo concipiet
!!!PDT:
!!!SMS-siglum: PL-Kk
!!!SMS-shelfmark: Kk.I.7
!!!NIFC-rismID: 300258099
!!!URL-scan: http://repozytorium.nifc.pl/skany/pl-kk-nut--i-7
!!!ONB-nifc: UWAGA: C (skan 0014-0015, s.23-24), A (0101, s.23), T(0177, s.18-19), B(0267, s.24). Następny utwór: Deo gratias
!!!SMS-variant:
!!!SMS-altvar:
**kern	**text	**text	**kern	**text	**text	**kern	**text	**kern	**text
*part4	*part4	*	*part3	*part3	*	*part2	*part2	*part1	*part1
*staff4	*staff4	*	*staff3	*staff3	*	*staff2	*staff2	*staff1	*staff1
*I"BASSVS.	*	*	*I"TENOR.	*	*	*I"ALTVS.	*	*I"CANTVS.	*
*I'B	*	*	*I'T	*	*	*I'A	*	*I'S	*
*clefF4	*	*	*clefC4	*	*	*clefC4	*	*clefC3	*
*k[]	*	*	*k[]	*	*	*k[]	*	*k[]	*
*M2/1	*	*	*M2/1	*	*	*M2/1	*	*M2/1	*
*met(c|)	*	*	*met(c|)	*	*	*met(c|)	*	*met(c|)	*
=1-	=1-	=1-	=1-	=1-	=1-	=1-	=1-	=1-	=1-
*all\right	*	*	*all\right	*	*	*all\right	*	*all\right	*
!LO:TX:a:B:t=Cŏio.	!	!	!	!	!	!LO:TX:a:B:t=Cŏio.	!	!	!
!	!	!	!	!	!	!LO:TX:t=P:problem:kreska pseudotaktowa	!	!LO:TX:t=P:problem:kreska pseudotaktowa	!
1D	Ec-	.	1D	Ec-	.	1A	Ec-	1d	Ec-
*2\right	*	*	*lig	*	*	*	*	*2\right	*
2.F\	-ce	.	1D	-ce	.	1.A	-ce	2d\	-ce
.	.	.	.	.	.	.	.	1f\	.
!LO:TX:t=P:problem:kreska pseudotaktowa	!	!	!	!	!	!	!	!	!
4E\	.	.	.	.	.	.	.	.	.
=2-	=2-	=2-	=2-	=2-	=2-	=2-	=2-	=2-	=2-
1D	.	.	1F	.	.	.	.	.	.
*	*	*	*	*	*	*2\right	*	*	*
.	.	.	.	.	.	2B\	.	4e\	Vir-
!	!	!	!	!	!	!	!	!LO:TX:t=P:problem:kreska pseudotaktowa	!
.	.	.	.	.	.	.	.	4d\	.
*	*	*	*Xlig	*	*	*	*	*	*
!LO:TX:t=P:problem:kreska pseudotaktowa	!	!	!LO:TX:t=P:problem:kreska pseudotaktowa	!	!	!	!	!	!
1C	.	.	1E	.	.	2.c\	Vir-	4e\	.
.	.	.	.	.	.	.	.	4f\	.
.	.	.	.	.	.	.	.	2g\	.
!	!	!	!	!	!	!LO:TX:t=P:problem:kreska pseudotaktowa	!	!	!
.	.	.	.	.	.	4B\	.	.	.
=3-	=3-	=3-	=3-	=3-	=3-	=3-	=3-	=3-	=3-
!	!	!	!	!	!	!	!	!LO:TX:t=P:problem:kreska pseudotaktowa	!
1D	Vir-	.	1F	Vir-	.	4A/	.	1d	-go
.	.	.	.	.	.	4G/	.	.	.
!	!	!	!	!	!	!LO:TX:t=P:problem:kreska pseudotaktowa	!	!	!
.	.	.	.	.	.	2A/	.	.	.
!LO:TX:t=P:problem:kreska pseudotaktowa	!	!	!LO:TX:t=P:problem:kreska pseudotaktowa	!	!	!LO:TX:t=P:problem:kreska pseudotaktowa	!	!	!
!	!	!	!	!	!	!LO:SIC:v:t=custos A	!	!	!
1GG	-go	.	1D	-go	.	1B	.	2r	.
.	.	.	.	.	.	.	.	1g\	con-
!	!	!	!	!	!	!LO:LB:g=original	!	!	!
=4-	=4-	=4-	=4-	=4-	=4-	=4-	=4-	=4-	=4-
*	*	*	*lig	*	*	*	*	*	*
2r	.	.	1D	con-	.	1A	-go	.	.
!LO:TX:t=P:problem:kreska pseudotaktowa	!	!	!	!	!	!	!	!LO:TX:t=P:problem:kreska pseudotaktowa	!
2D/	con-	.	.	.	.	.	.	2f\	.
!	!	!	!	!	!	!LO:TX:t=P:problem:kreska pseudotaktowa	!	!	!
2.C/	-ci-	.	1E	.	.	1c	.	2.e\	-ci-
4BB/	.	.	.	.	.	.	.	4d\	.
*	*	*	*Xlig	*	*	*	*	*	*
=5-	=5-	=5-	=5-	=5-	=5-	=5-	=5-	=5-	=5-
*	*	*	*lig	*	*	*	*	*	*
4C/	.	.	1G	-ci-	.	2.c\	con-	4e\	.
4D/	.	.	.	.	.	.	.	4f\	.
!LO:TX:t=P:problem:kreska pseudotaktowa	!	!	!	!	!	!	!	!LO:TX:t=P:problem:kreska pseudotaktowa	!
2E\	.	.	.	.	.	.	.	2g\	-pi-
.	.	.	.	.	.	4d\	.	.	.
2C/	-pi-	.	1A	.	.	2e\	-ci-	2e\	-et
!	!	!	!	!	!	!LO:TX:t=P:problem:kreska pseudotaktowa	!	!	!
2D/	.	.	.	.	.	2d\	-pi-	2f\	.
*	*	*	*Xlig	*	*	*	*	*	*
=6-	=6-	=6-	=6-	=6-	=6-	=6-	=6-	=6-	=6-
*	*	*	*lig	*	*	*	*	*	*
!LO:TX:t=P:problem:kreska pseudotaktowa	!	!	!	!	!	!	!	!LO:TX:t=P:problem:kreska pseudotaktowa	!
1GG	-et	.	1G	-pi-	.	1B	-et	1g	.
!	!	!	!	!	!	!LO:TX:t=P:problem:kreska pseudotaktowa	!	!	!
2r	.	.	1F	.	.	1A	.	2c/	et
*	*ij	*	*	*	*	*	*	*	*
2D/	con-	.	.	.	.	.	.	2.d\	.
*	*	*	*Xlig	*	*	*	*	*	*
=7-	=7-	=7-	=7-	=7-	=7-	=7-	=7-	=7-	=7-
*	*	*	*lig	*	*	*	*	*	*
!LO:TX:t=P:problem:kreska pseudotaktowa	!	!	!	!	!	!	!	!	!
1D	-ci-	.	1F	-et	.	2r	.	.	.
.	.	.	.	.	.	.	.	4e\	.
*	*	*	*	*	*	*	*ij	*	*
!	!	!	!	!	!	!LO:TX:t=P:problem:kreska pseudotaktowa	!	!	!
.	.	.	.	.	.	2A/	con-	4f\	.
!	!	!	!	!	!	!	!	!LO:TX:t=P:problem:kreska pseudotaktowa	!
.	.	.	.	.	.	.	.	4d\	.
*lig	*	*	*	*	*	*	*	*	*
1C	-pi-	.	1E	.	.	2.c\	-ci-	4e\	.
.	.	.	.	.	.	.	.	4f\	.
.	.	.	.	.	.	.	.	4g\	.
!	!	!	!	!	!	!	!	!LO:TX:t=P:problem:kreska pseudotaktowa	!
.	.	.	.	.	.	4B\	.	4f\	.
*	*	*	*Xlig	*	*	*	*	*	*
=8-	=8-	=8-	=8-	=8-	=8-	=8-	=8-	=8-	=8-
*	*	*	*lig	*	*	*	*	*	*
1D	.	.	1F	.	.	4A/	.	4d\	.
.	.	.	.	.	.	4G/	.	4e\	.
!	!	!	!	!	!	!LO:TX:t=P:problem:kreska pseudotaktowa	!	!LO:TX:t=P:problem:kreska pseudotaktowa	!
.	.	.	.	.	.	2A/	-pi-	2f\	.
*Xlig	*	*	*	*	*	*	*	*	*
!	!	!	!LO:TX:t=P:problem:kreska pseudotaktowa	!	!	!	!	!	!
1GG	-et	.	1D	.	.	2B\	-et	2g\	.
*	*Xij	*	*	*	*	*	*Xij	*	*
.	.	.	.	.	.	2.d\	et	2d\	et
*	*	*	*Xlig	*	*	*	*	*	*
=9-	=9-	=9-	=9-	=9-	=9-	=9-	=9-	=9-	=9-
*	*	*	*lig	*	*	*	*	*	*
!LO:TX:t=P:problem:kreska pseudotaktowa	!	!	!	!	!	!	!	!	!
1GG	et	.	1D	et	.	.	.	2.g\	pa-
.	.	.	.	.	.	4c\	.	.	.
.	.	.	.	.	.	4B\	pa-	.	.
!	!	!	!	!	!	!LO:TX:t=P:problem:kreska pseudotaktowa	!	!LO:TX:t=P:problem:kreska pseudotaktowa	!
!	!	!	!	!	!	!	!	!LO:SIC:v:t=custos e	!
!	!	!	!	!	!	!	!	!LO:TX:b:t=riet	!
.	.	.	.	.	.	4A/	.	4f\	.
!	!	!	!LO:TX:t=P:problem:kreska pseudotaktowa	!	!	!	!	!LO:PB:g=original	!
2.C/	pa-	.	1E	.	.	2G/	-ri-	4e\	.
.	.	.	.	.	.	.	.	4d\	.
!	!	!	!	!	!	!	!	!LO:TX:t=P:problem:kreska pseudotaktowa	!
.	.	.	.	.	.	2c\	-et	[y2e\	.
!LO:TX:t=P:problem:kreska pseudotaktowa	!	!	!	!	!	!	!	!	!
!LO:SIC:v:t=custos E	!	!	!	!	!	!	!	!	!
4D/	.	.	.	.	.	.	.	.	.
*	*	*	*Xlig	*	*	*	*	*	*
!LO:LB:g=original	!	!	!	!	!	!	!	!	!
=10-	=10-	=10-	=10-	=10-	=10-	=10-	=10-	=10-	=10-
*	*	*	*lig	*	*	*	*	*	*
!	!	!	!	!	!	!LO:TX:t=P:problem:kreska pseudotaktowa	!	!LO:N:xstem:cue	!
1E	.	.	1G	pa-	.	1B	.	4e\]	.
.	.	.	.	.	.	.	.	4f\	.
.	.	.	.	.	.	.	.	4g\	.
.	.	.	.	.	.	.	.	4e\	.
2D/	.	.	1A	.	.	2r	.	2f\	.
*	*	*	*	*	*	*	*ij	*	*
4C/	.	.	.	.	.	2d\	et	1g\	.
!LO:TX:t=P:problem:kreska pseudotaktowa	!	!	!	!	!	!	!	!	!
4BB/	.	.	.	.	.	.	.	.	.
*	*	*	*Xlig	*	*	*	*	*	*
=11-	=11-	=11-	=11-	=11-	=11-	=11-	=11-	=11-	=11-
*	*	*	*lig	*	*	*	*	*	*
1AA	-ri-	.	1c	.	.	2c\	pa-	.	.
!	!	!	!	!	!	!LO:TX:t=P:problem:kreska pseudotaktowa	!	!LO:TX:t=P:problem:kreska pseudotaktowa	!
.	.	.	.	.	.	2A/	.	2f\	-ri-
!	!	!	!	!	!	!	!	!LO:TX:t=P:problem:kreska pseudotaktowa	!
2GG/	-et	.	1d	.	.	1B	ri	1g	-et
!LO:TX:t=P:problem:kreska pseudotaktowa	!	!	!	!	!	!	!	!	!
*	*ij	*	*	*	*	*	*	*	*
2G\	et	.	.	.	.	.	.	.	.
*	*	*	*Xlig	*	*	*	*	*	*
=12-	=12-	=12-	=12-	=12-	=12-	=12-	=12-	=12-	=12-
2F\	pa-	.	1A	.	.	2c\	et	1r	.
*	*	*	*	*	*	*	*Xij	*	*
2D/	.	.	.	.	.	1d	fi-	.	.
*	*	*	*lig	*	*	*	*	*	*
!LO:TX:t=P:problem:kreska pseudotaktowa	!	!	!	!	!	!	!	!	!
1E	.	.	1G	-ri-	.	.	.	2r	.
*	*	*	*	*	*	*	*	*	*ij
!	!	!	!	!	!	!LO:TX:t=P:problem:kreska pseudotaktowa	!	!LO:TX:t=P:problem:kreska pseudotaktowa	!
.	.	.	.	.	.	2c\	-li-	2g\	et
=13-	=13-	=13-	=13-	=13-	=13-	=13-	=13-	=13-	=13-
2.D/	.	.	1A	.	.	2d\	-(um)	2f\	pa-
*	*	*	*	*	*	*	*ij	*	*
!	!	!	!	!	!	!LO:TX:t=P:problem:kreska pseudotaktowa	!	!LO:TX:t=P:problem:kreska pseudotaktowa	!
.	.	.	.	.	.	2f\	fi-	2d\	.
4C/	.	.	.	.	.	.	.	.	.
*	*	*	*Xlig	*	*	*	*	*	*
!	!	!	!LO:TX:t=P:problem:kreska pseudotaktowa	!	!	!	!	!	!
2AA/	-ri-	.	1A	-et	.	2e\	.	2e\	.
1D\	-et	.	.	.	.	1d\	.	2.f\	.
*	*Xij	*	*	*	*	*	*	*	*
=14-	=14-	=14-	=14-	=14-	=14-	=14-	=14-	=14-	=14-
.	.	.	1A	Fi-	.	.	.	.	.
.	.	.	.	.	.	.	.	4e\	.
!LO:TX:t=P:problem:kreska pseudotaktowa	!	!	!	!	!	!LO:TX:t=P:problem:kreska pseudotaktowa	!	!	!
2E\	fi-	.	.	.	.	[y2c\	.	1e	.
*	*	*	*lig	*	*	*	*	*	*
!	!	!	!	!	!	!LO:N:xstem:cue	!	!	!
1F	-li-	.	1A	-li-	.	4c\]	.	.	.
.	.	.	.	.	.	4B\	.	.	.
!	!	!	!	!	!	!	!	!LO:TX:t=P:problem:kreska pseudotaktowa	!
.	.	.	.	.	.	1A\	.	2d\	.
=15-	=15-	=15-	=15-	=15-	=15-	=15-	=15-	=15-	=15-
!	!	!	!LO:TX:t=P:problem:kreska pseudotaktowa	!	!	!	!	!	!
!	!	!	!LO:SIC:v:t=custos c	!	!	!	!	!	!
1E	-um	.	1B	.	.	.	.	1e	.
!	!	!	!	!	!	!LO:TX:t=P:problem:kreska pseudotaktowa	!	!	!
!	!	!	!	!	!	!LO:SIC:v:t=custos c	!	!	!
.	.	.	.	.	.	2G/	.	.	.
*	*	*	*Xlig	*	*	*	*	*	*
!	!	!	!LO:LB:g=original	!	!	!LO:LB:g=original	!	!	!
*	*ij	*	*lig	*	*	*	*	*	*
2AA/	fi-	.	1c	.	.	2.A/	.	2c/	.
!LO:TX:t=P:problem:kreska pseudotaktowa	!	!	!	!	!	!	!	!LO:TX:t=P:problem:kreska pseudotaktowa	!
2AA/	-li-	.	.	.	.	.	.	[y2e\	.
!	!	!	!	!	!	!LO:TX:t=P:problem:kreska pseudotaktowa	!	!	!
.	.	.	.	.	.	4G/	.	.	.
=16-	=16-	=16-	=16-	=16-	=16-	=16-	=16-	=16-	=16-
!	!	!	!	!	!	!	!	!LO:N:xstem:cue	!
1D	.	.	1A	.	.	2F/	.	4e\]	.
.	.	.	.	.	.	.	.	4d\	-ri-
.	.	.	.	.	.	4E/	.	1d	-et
.	.	.	.	.	.	4D/	.	.	.
*	*	*	*Xlig	*	*	*	*	*	*Xij
!LO:TX:t=P:problem:kreska pseudotaktowa	!	!	!LO:TX:t=P:problem:kreska pseudotaktowa	!	!	!	!	!	!
1AA	-um	.	1A	-um	.	2.E/	.	.	.
*	*Xij	*	*	*	*	*	*	*	*
!	!	!	!	!	!	!	!	!LO:TX:t=P:problem:kreska pseudotaktowa	!
.	.	.	.	.	.	.	.	2c/	fi-
!	!	!	!	!	!	!LO:TX:t=P:problem:kreska pseudotaktowa	!	!	!
.	.	.	.	.	.	4A/	.	.	.
=17-	=17-	=17-	=17-	=17-	=17-	=17-	=17-	=17-	=17-
!	!	!	!	!	!	!LO:TX:b:t=P:problem:# below	!	!	!
1rE	.	.	1G	et	.	1B#X	-li-	2d\	-li-
.	.	.	.	.	.	.	.	2e\	-um
*	*	*	*lig	*	*	*	*	*	*
!	!	!	!	!	!	!LO:TX:t=P:problem:kreska pseudotaktowa	!	!	!
2rC	.	.	1B	Vo-	.	1G	-(um)	2d\	et
*	*	*	*	*	*	*	*Xij	*	*
1E\	et	.	.	.	.	.	.	4g\	vo-
!	!	!	!	!	!	!	!	!LO:TX:t=P:problem:kreska pseudotaktowa	!
.	.	.	.	.	.	.	.	4f\	.
=18-	=18-	=18-	=18-	=18-	=18-	=18-	=18-	=18-	=18-
.	.	.	1c	.	.	2r	.	4e\	-ca-
.	.	.	.	.	.	.	.	4d\	.
!LO:TX:t=P:problem:kreska pseudotaktowa	!	!	!	!	!	!	!	!LO:TX:t=P:problem:kreska pseudotaktowa	!
2C/	Vo-	.	.	.	.	1A	et	2e\	.
*	*	*	*Xlig	*	*	*	*	*	*
*	*	*	*lig	*	*	*	*	*	*
1D	-ca-	.	1A	-ca-	.	.	.	1f	.
!	!	!	!	!	!	!LO:TX:b:t=P:problem:# below	!	!	!
.	.	.	.	.	.	2F#X/	Vo-	.	.
=19-	=19-	=19-	=19-	=19-	=19-	=19-	=19-	=19-	=19-
!	!	!	!	!	!	!LO:TX:t=P:problem:kreska pseudotaktowa	!	!	!
1E	-bi-	.	1G	.	.	1G	-ca-	2e\	bi-
.	.	.	.	.	.	.	.	1e	-tur
*	*	*	*Xlig	*	*	*	*	*	*
*	*	*	*lig	*	*	*	*	*	*
!LO:TX:t=P:problem:kreska pseudotaktowa	!	!	!	!	!	!	!	!	!
1AA	-tur	.	1c	-bi-	.	1A	-bi-	.	.
*	*	*	*	*	*	*	*	*	*ij
!	!	!	!	!	!	!	!	!LO:TX:t=P:problem:kreska pseudotaktowa	!
.	.	.	.	.	.	.	.	2c/	fi-
=20-	=20-	=20-	=20-	=20-	=20-	=20-	=20-	=20-	=20-
2rC	.	.	1A	.	.	2D/	-tur	2d\	-li-
!	!	!	!	!	!	!LO:TX:t=P:problem:kreska pseudotaktowa	!	!LO:TX:t=P:problem:kreska pseudotaktowa	!
!	!	!	!	!	!	!	!	!LO:SIC:v:t=custos A	!
2AA/	no-	.	.	.	.	2A/	.	2e\	-um
*	*	*	*Xlig	*	*	*	*	*	*
!	!	!	!	!	!	!	!	!LO:LB:g=original	!
2.AA/	-men	.	1c	.	.	2A/	.	2A/	et
.	.	.	.	.	.	2.c\	.	2.e\	vo-
!LO:TX:t=P:problem:kreska pseudotaktowa	!	!	!	!	!	!	!	!	!
4BB/	.	.	.	.	.	.	.	.	.
=21-	=21-	=21-	=21-	=21-	=21-	=21-	=21-	=21-	=21-
*	*	*	*lig	*	*	*	*	*	*
4C/	.	.	1G	-tur	.	.	.	.	.
!LO:SIC:v:t=custos E	!	!	!	!	!	!	!	!	!
4D/	.	.	.	.	.	4Bny\	.	4f\	.
!LO:LB:g=original	!	!	!	!	!	!	!	!	!
!LO:TX:t=P:problem:kreska pseudotaktowa	!	!	!	!	!	!LO:TX:t=P:problem:kreska pseudotaktowa	!	!LO:TX:t=P:problem:kreska pseudotaktowa	!
2E\	.	.	.	.	.	[y2B\	.	2g\	.
!	!	!	!	!	!	!LO:N:xstem:cue	!	!	!
2D/	.	.	1A	.	.	4B\]	.	2f\	-ca-
.	.	.	.	.	.	4A/	.	.	.
!LO:TX:t=P:problem:kreska pseudotaktowa	!	!	!	!	!	!	!	!	!
2C/	.	.	.	.	.	1A\	.	2e\	.
*	*	*	*Xlig	*	*	*	*	*	*
=22-	=22-	=22-	=22-	=22-	=22-	=22-	=22-	=22-	=22-
!	!	!	!	!	!	!	!	!LO:TX:t=P:problem:kreska pseudotaktowa	!
1BB	e-	.	1B	.	.	.	.	1d	-bi-
!	!	!	!	!	!	!LO:TX:t=P:problem:kreska pseudotaktowa	!	!	!
.	.	.	.	.	.	2G/	.	.	.
*	*	*	*lig	*	*	*	*	*	*
!LO:TX:t=P:problem:kreska pseudotaktowa	!	!	!	!	!	!	!	!	!
1AA	-ius	.	1c	.	.	2A/	.	2c/	-tur
*	*	*	*	*	*	*	*	*	*Xij
!	!	!	!	!	!	!LO:TX:t=P:problem:kreska pseudotaktowa	!	!	!
.	.	.	.	.	.	2A/	no-	2e\	no-
=23-	=23-	=23-	=23-	=23-	=23-	=23-	=23-	=23-	=23-
!	!	!	!LO:TX:t=P:problem:kreska pseudotaktowa	!	!	!	!	!	!
2r	.	.	1A	.	.	2c\	-men	2e\	-men
2.D/	no-	.	.	.	.	1d	.	1f	e-
*	*	*	*Xlig	*	*	*	*	*	*
.	.	.	1F	no-	.	.	.	.	.
4E\	.	.	.	.	.	.	.	.	.
4F\	.	.	.	.	.	4c\	e-	4e\	.
!LO:TX:t=P:problem:kreska pseudotaktowa	!	!	!	!	!	!LO:TX:t=P:problem:kreska pseudotaktowa	!	!LO:TX:t=P:problem:kreska pseudotaktowa	!
4G\	.	.	.	.	.	4B\	.	4d\	.
=24-	=24-	=24-	=24-	=24-	=24-	=24-	=24-	=24-	=24-
!	!	!	!LO:TX:t=P:problem:kreska pseudotaktowa	!	!	!	!	!	!
2A\	.	.	1F	-men	.	1A	.	2c/	.
!LO:TX:t=P:problem:kreska pseudotaktowa	!	!	!	!	!	!	!	!LO:TX:t=P:problem:kreska pseudotaktowa	!
2D/	-men	.	.	.	.	.	.	2d\	.
*	*	*	*lig	*	*	*	*	*	*
1A	e-	.	1F	e-	.	2Fny/	-i(us)	2c/	.
!	!	!	!	!	!	!	!	!LO:TX:t=P:problem:kreska pseudotaktowa	!
.	.	.	.	.	.	4D/	no-	[y2f\	.
!	!	!	!	!	!	!LO:TX:t=P:problem:kreska pseudotaktowa	!	!	!
.	.	.	.	.	.	4E/	.	.	.
=25-	=25-	=25-	=25-	=25-	=25-	=25-	=25-	=25-	=25-
!LO:TX:t=P:problem:kreska pseudotaktowa	!	!	!	!	!	!	!	!LO:N:xstem:cue	!
1D	-i(us)	.	1A	.	.	4F/	.	4f\]	.
.	.	.	.	.	.	4G/	.	4e\	.
.	.	.	.	.	.	1A	.	4d\	.
!	!	!	!	!	!	!	!	!LO:TX:t=P:problem:kreska pseudotaktowa	!
.	.	.	.	.	.	.	.	4c\	.
*	*	*	*Xlig	*	*	*	*	*	*
*	*	*	*lig	*	*	*	*	*	*
2r	.	.	1B-	.	.	.	.	2.d\	.
*	*ij	*	*	*	*	*	*	*	*
!	!	!	!	!	!	!LO:TX:t=P:problem:kreska pseudotaktowa	!	!	!
2GG/	no-	.	.	.	.	2G/	-men	.	.
.	.	.	.	.	.	.	.	4e\	.
=26-	=26-	=26-	=26-	=26-	=26-	=26-	=26-	=26-	=26-
!	!	!	!	!	!	!LO:SIC:v:t=custos E	!	!	!
2D/	.	.	1A	.	.	2F/	e-	2f\	.
!	!	!	!	!	!	!LO:LB:g=original	!	!	!
!LO:TX:t=P:problem:kreska pseudotaktowa	!	!	!	!	!	!LO:TX:t=P:problem:kreska pseudotaktowa	!	!	!
2C/	-men	.	.	.	.	2E/	.	1g	.
*	*	*	*Xlig	*	*	*	*	*	*
*	*	*	*lig	*	*	*	*	*	*
1D	e-	.	1A	-ius	.	2D/	-ius	.	.
!	!	!	!	!	!	!	!	!LO:TX:t=P:problem:kreska pseudotaktowa	!
.	.	.	.	.	.	1d\	.	2f\	.
=27-	=27-	=27-	=27-	=27-	=27-	=27-	=27-	=27-	=27-
!LO:TX:t=P:problem:kreska pseudotaktowa	!	!	!LO:TX:t=P:problem:kreska pseudotaktowa	!	!	!	!	!	!
1GG	-i(us)	.	1G	.	.	.	.	2g,\	-ius
!	!	!	!	!	!	!LO:TX:t=P:problem:kreska pseudotaktowa	!	!LO:TX:t=P:problem:kreska pseudotaktowa	!
.	.	.	.	.	.	2B\	Em-	2d\	Em-
*	*Xij	*	*Xlig	*	*	*	*	*	*
*	*	*	*lig	*	*	*	*	*	*
2r	.	.	1F	Em-	.	2c\	-ma-	2.f\	-ma-
!	!	!	!	!	!	!LO:TX:t=P:problem:kreska pseudotaktowa	!	!	!
2D/	Em-	.	.	.	.	2A/	.	.	.
.	.	.	.	.	.	.	.	4e\	.
=28-	=28-	=28-	=28-	=28-	=28-	=28-	=28-	=28-	=28-
2BB/	-ma-	.	1G	.	.	2B\	-nu-	2d\	.
1C	.	.	.	.	.	2G/	.	1e	.
*	*	*	*Xlig	*	*	*	*	*	*
*	*	*	*lig	*	*	*	*	*	*
.	.	.	1E	.	.	1c	-el	.	.
!LO:TX:t=P:problem:kreska pseudotaktowa	!	!	!	!	!	!	!	!LO:TX:t=P:problem:kreska pseudotaktowa	!
2AA/	.	.	.	.	.	.	.	2c/	.
=29-	=29-	=29-	=29-	=29-	=29-	=29-	=29-	=29-	=29-
!	!	!	!	!	!	!LO:TX:t=P:problem:kreska pseudotaktowa	!	!	!
1D	-nu-	.	1F	.	.	1A	.	2.d\	.
.	.	.	.	.	.	.	.	4c/	.
*	*	*	*Xlig	*	*	*	*	*	*
!LO:TX:t=P:problem:kreska pseudotaktowa	!	!	!LO:TX:t=P:problem:kreska pseudotaktowa	!	!	!	!	!	!
!	!	!	!LO:SIC:v:t=custos D	!	!	!	!	!	!
0GG	-el	.	1D	.	.	2r	.	2.B/	.
*	*	*	*	*	*	*	*ij	*	*
.	.	.	.	.	.	1d\	Em-	.	.
!	!	!	!	!	!	!	!	!LO:TX:t=P:problem:kreska pseudotaktowa	!
.	.	.	.	.	.	.	.	4A/	.
!	!	!	!LO:PB:g=original	!	!	!	!	!	!
=30-	=30-	=30-	=30-	=30-	=30-	=30-	=30-	=30-	=30-
*	*	*	*lig	*	*	*	*	*	*
.	.	.	1D	-ma-	.	.	.	4G/	.
.	.	.	.	.	.	.	.	4A/	.
!	!	!	!	!	!	!LO:TX:t=P:problem:kreska pseudotaktowa	!	!LO:TX:t=P:problem:kreska pseudotaktowa	!
!	!	!	!	!	!	!	!	!LO:SIC:v:t=custos A	!
.	.	.	.	.	.	2B\	-ma-	2B/	.
!	!	!	!	!	!	!	!	!LO:LB:g=original	!
2r	.	.	1F	.	.	2c\	.	1A	-nu-
*	*ij	*	*	*	*	*	*	*	*
!LO:TX:t=P:problem:kreska pseudotaktowa	!	!	!	!	!	!LO:TX:t=P:problem:kreska pseudotaktowa	!	!	!
2D/	Em-	.	.	.	.	2A/	.	.	.
*	*	*	*Xlig	*	*	*	*	*	*
=31-	=31-	=31-	=31-	=31-	=31-	=31-	=31-	=31-	=31-
*	*	*	*lig	*	*	*	*	*	*
2BB/	-ma-	.	1G	.	.	2B\	.	2G/	-el
!	!	!	!	!	!	!	!	!LO:TX:t=P:problem:kreska pseudotaktowa	!
1C	.	.	.	.	.	2G/	.	2g\	.
.	.	.	1A	.	.	2.c\	.	2e\	Em-
!LO:TX:t=P:problem:kreska pseudotaktowa	!	!	!	!	!	!	!	!	!
2AA/	.	.	.	.	.	.	.	1f\	-ma-
!	!	!	!	!	!	!LO:TX:t=P:problem:kreska pseudotaktowa	!	!	!
.	.	.	.	.	.	4B\	.	.	.
*	*	*	*Xlig	*	*	*	*	*	*
=32-	=32-	=32-	=32-	=32-	=32-	=32-	=32-	=32-	=32-
*	*	*	*lig	*	*	*	*	*	*
1D	.	.	1F	.	Al-	2A/	.	.	.
!	!	!	!	!	!	!	!	!LO:TX:t=P:problem:kreska pseudotaktowa	!
.	.	.	.	.	.	2B\	.	2d\	-nu-
!LO:TX:t=P:problem:kreska pseudotaktowa	!	!	!	!	!	!	!	!	!
!LO:SIC:v:t=custos BB	!	!	!	!	!	!	!	!	!
1AA	-nu-	.	1E	.	-le-	2c\	.	2e\	-el
!	!	!	!	!	!	!	!	!LO:TX:t=P:problem:kreska pseudotaktowa	!
.	.	.	.	.	.	1A\	.	2c/	.
*	*	*	*Xlig	*	*	*	*	*	*
!LO:LB:g=original	!	!	!	!	!	!	!	!	!
=33-	=33-	=33-	=33-	=33-	=33-	=33-	=33-	=33-	=33-
0BB-X	-el	.	0D	-nu-	-lu-	.	.	2d\	no-
*	*Xij	*	*	*	*	*	*	*	*
.	.	.	.	.	.	4G/	.	1f	-men-
!	!	!	!	!	!	!LO:TX:t=P:problem:kreska pseudotaktowa	!	!	!
.	.	.	.	.	.	4F/	.	.	.
.	.	.	.	.	.	1G	-nu-	.	.
.	.	.	.	.	.	.	.	4e\	-e-
!	!	!	!	!	!	!	!	!LO:TX:t=P:problem:kreska pseudotaktowa	!
.	.	.	.	.	.	.	.	4d\	.
=34-	=34-	=34-	=34-	=34-	=34-	=34-	=34-	=34-	=34-
!LO:TX:t=P:problem:kreska pseudotaktowa	!	!	!	!	!	!LO:TX:t=P:problem:kreska pseudotaktowa	!	!	!
0AA	.	.	0E	.	.	1A	-el	2c/	.
*	*	*	*	*	*	*	*Xij	*	*
.	.	.	.	.	.	.	.	1d	.
.	.	.	.	.	.	2r	.	.	.
!	!	!	!	!	!	!LO:TX:t=P:problem:kreska pseudotaktowa	!	!	!
.	.	.	.	.	.	2A/	Em-	2c/	.
=35-	=35-	=35-	=35-	=35-	=35-	=35-	=35-	=35-	=35-
!	!	!	!	!	!	!	!	!LO:TX:t=P:problem:kreska pseudotaktowa	!
2r	.	.	[0Dl;	-el.	-ia.	1.A	-ma-	0d	-ius
!LO:TX:t=P:problem:kreska pseudotaktowa	!	!	!	!	!	!	!	!	!
2A	Em-	Al-	.	.	.	.	.	.	.
!	!	!	!	!	!	!LO:TX:t=P:problem:kreska pseudotaktowa	!	!	!
1.A\	-ma-	-le-	.	.	.	.	.	.	.
.	.	.	.	.	.	2G/	.	.	.
=36-	=36-	=36-	=36-	=36-	=36-	=36-	=36-	=36-	=36-
!	!	!	!	!	!	!	!	!LO:TX:t=P:problem:kreska pseudotaktowa	!
.	.	.	0D_	.	.	2F/	.	1r	.
!LO:TX:t=P:problem:kreska pseudotaktowa	!	!	!	!	!	!	!	!	!
2G\	.	.	.	.	.	2E/	-nu-	.	.
.	.	.	.	.	.	.	.	.	.
!	!	!	!	!	!	!	!	!LO:TX:t=P:problem:kreska pseudotaktowa	!
2F\	.	.	.	.	.	1D	-el	1d	Em-
!LO:TX:t=P:problem:kreska pseudotaktowa	!	!	!	!	!	!	!	!	!
2E\	.	.	.	.	.	.	.	.	.
=37-	=37-	=37-	=37-	=37-	=37-	=37-	=37-	=37-	=37-
!	!	!	!	!	!	!LO:TX:t=P:problem:kreska pseudotaktowa	!	!	!
2D/	.	.	0D_	.	.	1A	.	1.d	-ma-
!LO:TX:t=P:problem:kreska pseudotaktowa	!	!	!	!	!	!	!	!	!
2C/	.	.	.	.	.	.	.	.	.
2BB-X/	.	.	.	.	.	2r	.	.	.
*	*	*	*	*	*	*	*ij	*	*
!LO:TX:t=P:problem:kreska pseudotaktowa	!	!	!	!	!	!	!	!	!
2AA/	.	.	.	.	.	2F/	Em-	2c,/	.
=38-	=38-	=38-	=38-	=38-	=38-	=38-	=38-	=38-	=38-
2GG/	.	.	0D_	.	.	2G/	-ma-	2B/	.
!LO:TX:t=P:problem:kreska pseudotaktowa	!	!	!	!	!	!	!	!LO:TX:t=P:problem:kreska pseudotaktowa	!
2FF#X/	.	.	.	.	.	2A/	.	2A/	.
1GG	-nu-	-lu-	.	.	.	2B-X\	.	2G/	.
.	.	.	.	.	.	2G/	-nu-	2B/	-nu-
=39-	=39-	=39-	=39-	=39-	=39-	=39-	=39-	=39-	=39-
0Dl	-el	-ia.	0D]	.	.	0F#l;	-el	0Al;	-el.
*	*	*	*	*	*	*	*Xij	*	*
==	==	==	==	==	==	==	==	==	==
*-	*-	*-	*-	*-	*-	*-	*-	*-	*-
!!!system-decoration: [s1,s2,s3,s4]
!!!RDF**kern: l = terminal long
!!!ENC: Marta Lawrence
!!!END: 2021-03-08
!!!ENC: Berenika Jozajtis
!!!END: 2021-02-23
